src/icons/SVG/48px/Payment_Cards_Monochrome_OneyX4_48px.svg

<svg width="48" height="48" viewBox="0 0 48 48" fill="none" xmlns="http://www.w3.org/2000/svg">
<g id="Square"> </g>
<g id="Icon">
<path id="Subtract" fill-rule="evenodd" clip-rule="evenodd" d="M38.8125 24C38.8125 32.1807 32.1807 38.8125 24 38.8125C15.8193 38.8125 9.1875 32.1807 9.1875 24C9.1875 15.8193 15.8193 9.1875 24 9.1875C32.1807 9.1875 38.8125 15.8193 38.8125 24ZM22.4371 28.8801H20.1506V26.6092H15.5V24.6805L18.1908 18.0701H20.7261L18.1131 24.5405H20.1506V22.2074H22.4371V24.5405H23.5881V26.6092H22.4371V28.8801ZM32.4692 20.625L29.6567 24.5437L32.4242 28.6875H29.6774L28.2505 26.5406L26.938 28.6875H24.313L26.9924 24.6806L24.3242 20.625H27.0711L28.4624 22.7269L29.8536 20.625H32.4692Z" fill="black"/>
</g>
</svg>

<svg xmlns="http://www.w3.org/2000/svg" viewBox="0 0 48 48">
  <g id="Square"> </g>
  <path fill-rule="evenodd" d="M38.813 24c0 8.18-6.632 14.813-14.813 14.813-8.18 0-14.813-6.632-14.813-14.813C9.188 15.82 15.82 9.187 24 9.187c8.18 0 14.813 6.632 14.813 14.813zm-16.376 4.88h-2.286v-2.27H15.5v-1.93l2.69-6.61h2.536l-2.613 6.47h2.038v-2.333h2.286v2.334h1.151v2.068h-1.15v2.271zm10.032-8.255l-2.812 3.919 2.767 4.143h-2.747l-1.427-2.146-1.312 2.146h-2.625l2.68-4.006-2.669-4.056h2.747l1.391 2.102 1.392-2.102h2.615z"/>
</svg>
